X:1
T:Da Pacem, 87.87 D
T:Da Pacem, 87.87 D
T:Thomas Ravenscroft, 1621
T:Public Domain Courtesy of the Cyber Hymnal™
C:Thomas Ravenscroft, 1621
Z:Public Domain
Z:Courtesy of the Cyber Hymnal™
%%score ( 1 2 ) ( 3 4 )
L:1/8
M:none
K:C
V:1 treble 
V:2 treble 
V:3 bass 
V:4 bass 
V:1
"^Tune in tenor" [CG]4 A2 z D x | [Cc]4 z2 x4 | [EB]2 [CA]2 [CG]4 | [Gc]2 [EG]4 [CE]2 | %4
 [CF]2 E3 z [A,D]2 | [A,^C]4 z2 C2 | A2 z D [Cc]2 [Cc]2 | z2 F2 [EB]2 [CA]2 | %8
 [CG]4 [Gc]2 [EG]2- x4 | [EG]2 [CE]2 [C-F]2 E3 | z [A,^C]4 x3 | [Cc]2 [EA]4 ^G2 | [CA]4 ^G4 z2 | %13
 ^F2 [^CE]2 [DF]4 | [B,D]4 [B,G]2 [DB]2 | [DG]2 c4 B2 | %16
 [Ec]4 [EG]4 F>A z F [EG]4 d2 c4 [DB]2 [Ec]4 | z2 [Ec]2 A2 [DG]2 A z D3 ^F/E/ z C [B,G]8 |] %18
V:2
 x4 D3 B2 | x4 (c4 F2) | x8 | x8 | x2 C2 (A,2 A,) x | x4 G4 | D3 B2 x3 | c4 x4 | x12 | x6 C2 x | %10
 A,4 A, D2 x | x6 ED | x4 D2 D4 | x8 | x8 | x2 G2 A2 GF | x8 D3 (G2 x5 A,2) C2 x6 | %17
 (G4 ^F>)E x/ E2 G3 x F2 x19/2 |] %18
V:3
 [C,E,]4 [F,,F,]2 [G,,D,]2 x | [C,E,]4 [F,,A,]4 x2 | [G,,G,]2 F,2 [C,E,]4 | G,2 z2 C,2 [C,G,]2 | %4
 [F,A,]2 [C,E,]2 [D,F,]2 [D,F,]2 | [A,,E,]4 [C,E,]4 | [F,,F,]2 [G,,D,]2 [C,E,]2 [C,E,]2 | %7
 [F,,A,]4 [G,,G,]2 F,2 | [C,E,]4 G,2 z2 x4 | C,2 [C,G,]2 [F,A,]2 [C,E,]2 x | [D,F,]4 [A,,E,]4 | %11
 [A,,E]4 [E,C]2 [E,B,]2 | [A,,C]4 [G,,B,]4 x2 | [D,A,]2 [E,G,]2 [D,A,]4 | %14
 [G,,G,]4 [G,,G,]2 [G,,G,]2 | [G,B,]2 [E,C]2 D4 | %16
 [C,C]4 [C,C]4 [D,A,]2 [G,,B,]2 [C,C]4 [F,A,]4 [E,G,]2 [D,F,]2 [C,G,]4 | %17
 [C,E,]4 [C,G,]2 [F,A,]2 [G,B,]2 [C,C]2 [D,A,]4 [G,,G,]8 |] %18
V:4
 x9 | x10 | x2 A,,B,, x4 | C,4 C4 | x8 | x8 | x8 | x6 A,,B,, | x4 C,4 C4 | x9 | x8 | x8 | x10 | %13
 x8 | x8 | x4 F,2 G,2 | x28 | x24 |] %18

